%
 
(DIAMETER MODE PROGRAMMING)
( POSTING DATE: TUE APR 07 09:55:49 2009)

(Stock Diameter 15.9mm)

G40 G18 G90 G21
 
(OPER NAME: FACING)
N1 T0101 (55 degrees diamond RH tool R0.2)
N2 G0 X004.000 Z005.000
N3 G0 X020.000 Z005.000
N4 G0 X022.688 Z000.242
N5 G97 S3000 M3
N6 G95
N7 G1 X022.288 Z000.242 F.06
N8 G1 X000.000 Z000.242
N9 G1 X-000.400 Z000.242
N10 G0 X-000.400 Z001.242
N11 G0 X022.700 Z001.242
N12 G0 X022.700 Z000.200
N13 G1 X022.300 Z000.200
N14 G1 X000.000 Z000.200
N15 G1 X-000.400 Z000.200
N16 G0 X-000.400 Z001.240
N17 G0 X020.000 Z005.000
 
(OPER NAME: ROUGH_TURN_OD_1)
N18 M3
N19 G0 X015.700 Z003.400
N20 G1 X015.700 Z003.200 F.07
N21 G1 X015.700 Z-020.127
N22 G3 X016.300 Z-020.337 R000.600
N23 G1 X016.582 Z-020.195
N24 G0 X017.700 Z-020.195
N25 G0 X017.700 Z003.400
N26 G0 X015.100 Z003.400
N27 G1 X015.100 Z003.200
N28 G1 X015.100 Z-020.098
N29 G1 X015.366 Z-020.100
N30 G1 X015.554 Z-020.109
N31 G1 X015.700 Z-020.127
N32 G1 X015.982 Z-019.985
N33 G0 X017.100 Z-019.985
N34 G0 X017.100 Z003.400
N35 G0 X014.500 Z003.400
N36 G1 X014.500 Z003.200
N37 G1 X014.500 Z-020.093
N38 G1 X015.100 Z-020.098
N39 G1 X015.382 Z-019.956
N40 G0 X016.500 Z-019.956
N41 G0 X016.500 Z003.400
N42 G0 X013.900 Z003.400
N43 G1 X013.900 Z003.200
N44 G1 X013.900 Z-020.087
N45 G1 X014.500 Z-020.093
N46 G1 X014.782 Z-019.951
N47 G0 X015.900 Z-019.951
N48 G0 X015.900 Z003.400
N49 G0 X013.300 Z003.400
N50 G1 X013.300 Z003.200
N51 G1 X013.300 Z-020.082
N52 G1 X013.900 Z-020.087
N53 G1 X014.182 Z-019.946
N54 G0 X015.300 Z-019.946
N55 G0 X015.300 Z003.400
N56 G0 X012.700 Z003.400
N57 G1 X012.700 Z003.200
N58 G1 X012.700 Z-014.113
N59 G1 X013.300 Z-014.190
N60 G1 X013.582 Z-014.049
N61 G0 X014.700 Z-014.049
N62 G0 X014.700 Z003.400
N63 G0 X012.100 Z003.400
N64 G1 X012.100 Z003.200
N65 G1 X012.100 Z-000.684
N66 G1 X012.700 Z-000.984
N67 G1 X012.982 Z-000.843
N68 G0 X014.100 Z-000.843
N69 G0 X014.100 Z003.400
N70 G0 X011.500 Z003.400
N71 G1 X011.500 Z003.200
N72 G1 X011.500 Z-000.384
N73 G1 X012.100 Z-000.684
N74 G1 X012.382 Z-000.543
N75 G0 X013.500 Z-000.543
N76 G0 X013.500 Z003.400
N77 G0 X010.900 Z003.400
N78 G1 X010.900 Z003.200
N79 G1 X010.900 Z-000.084
N80 G1 X011.500 Z-000.384
N81 G1 X011.782 Z-000.243
N82 G0 X012.900 Z-000.243
N83 G0 X012.900 Z000.341
N84 G0 X010.614 Z000.341
N85 G1 X010.332 Z000.200
N86 G1 X010.900 Z-000.084
N87 G1 X011.182 Z000.057
N88 G0 X012.370 Z000.651
N89 G0 X016.338 Z003.218
 
(OPER NAME: FINISH_TURN_OD_1)
N90 M3
N91 G0 X016.338 Z002.547
N92 G0 X009.416 Z002.547
N93 G0 X008.186 Z000.990
N94 G1 X008.468 Z000.849 F.06
N95 G1 X012.182 Z-001.009
N96 G1 X012.266 Z-001.053
N97 G1 X012.304 Z-001.103
N98 G1 X012.300 Z-001.150
N99 G1 X012.300 Z-014.300
N100 G1 X012.500 Z-014.300
N101 G3 X012.900 Z-014.500 R000.200
N102 G1 X012.900 Z-020.300
N103 G1 X015.344 Z-020.300
N104 G0 X040.000 Z-020.300
     M5
N105 G0 X040.000 Z030.000

( THREADING )

T0606
G00  X11.925
G00 Z2
G00 X11.9
M03 S550
M08
G76 X9.1 Z-14 Q1 P1.75 J0.006 L45 H0.25 I29 C1 B0.0001 T0
M5
G0 X40 Z40
 
(OPER NAME: ROUGH_TURN_OD_2)
N106 T0202  (55 degrees diamond NEUTRAL tool R0.2)
N107 G0 X021.296 Z-023.736
     M3 S3000
N108 G0 X020.864 Z-023.736
N109 G0 X018.380 Z-023.557
N110 G0 X016.700 Z-023.557
N111 G1 X016.300 Z-023.557 F.07
N112 G1 X015.900 Z-023.670
N113 G1 X015.900 Z-040.468
N114 G1 X016.300 Z-040.581
N115 G1 X016.582 Z-040.440
N116 G0 X017.900 Z-040.440
N117 G0 X017.900 Z-023.670
N118 G0 X016.300 Z-023.670
N119 G1 X015.900 Z-023.670
N120 G1 X015.670 Z-023.735
N121 G1 X015.612 Z-023.808
N122 G1 X015.500 Z-023.875
N123 G1 X015.500 Z-040.355
N124 G1 X015.900 Z-040.468
N125 G1 X016.182 Z-040.327
N126 G0 X017.500 Z-040.327
N127 G0 X017.500 Z-023.875
N128 G0 X015.900 Z-023.875
N129 G1 X015.500 Z-023.875
N130 G1 X015.408 Z-023.944
N131 G1 X015.262 Z-024.006
N132 G1 X015.100 Z-024.079
N133 G1 X015.100 Z-040.242
N134 G1 X015.500 Z-040.355
N135 G1 X015.782 Z-040.213
N136 G0 X017.100 Z-040.213
N137 G0 X017.100 Z-024.079
N138 G0 X015.500 Z-024.079
N139 G1 X015.100 Z-024.079
N140 G1 X014.700 Z-024.259
N141 G1 X014.700 Z-040.129
N142 G1 X015.100 Z-040.242
N143 G1 X015.382 Z-040.100
N144 G0 X016.700 Z-040.100
N145 G0 X016.700 Z-024.259
N146 G0 X015.100 Z-024.259
N147 G1 X014.700 Z-024.259
N148 G1 X014.300 Z-024.440
N149 G1 X014.300 Z-040.015
N150 G1 X014.700 Z-040.129
N151 G1 X014.982 Z-039.987
N152 G0 X016.300 Z-039.987
N153 G0 X016.300 Z-024.440
N154 G0 X014.700 Z-024.440
N155 G1 X014.300 Z-024.440
N156 G1 X013.900 Z-024.620
N157 G1 X013.900 Z-039.902
N158 G1 X014.300 Z-040.015
N159 G1 X014.582 Z-039.874
N160 G0 X015.900 Z-039.874
N161 G0 X015.900 Z-024.620
N162 G0 X014.300 Z-024.620
N163 G1 X013.900 Z-024.620
N164 G1 X013.500 Z-024.800
N165 G1 X013.500 Z-039.789
N166 G1 X013.900 Z-039.902
N167 G1 X014.182 Z-039.761
N168 G0 X015.500 Z-039.761
N169 G0 X015.500 Z-024.800
N170 G0 X013.900 Z-024.800
N171 G1 X013.500 Z-024.800
N172 G1 X013.100 Z-024.981
N173 G1 X013.100 Z-039.676
N174 G1 X013.500 Z-039.789
N175 G1 X013.782 Z-039.648
N176 G0 X015.100 Z-039.648
N177 G0 X015.100 Z-024.981
N178 G0 X013.500 Z-024.981
N179 G1 X013.100 Z-024.981
N180 G1 X012.700 Z-025.161
N181 G1 X012.700 Z-039.563
N182 G1 X013.100 Z-039.676
N183 G1 X013.382 Z-039.535
N184 G0 X014.700 Z-039.535
N185 G0 X014.700 Z-025.161
N186 G0 X013.100 Z-025.161
N187 G1 X012.700 Z-025.161
N188 G1 X012.532 Z-025.237
N189 G1 X012.300 Z-025.345
N190 G1 X012.300 Z-039.450
N191 G1 X012.700 Z-039.563
N192 G1 X012.982 Z-039.421
N193 G0 X014.300 Z-039.421
N194 G0 X014.300 Z-025.345
N195 G0 X012.700 Z-025.345
N196 G1 X012.300 Z-025.345
N197 G2 X011.900 Z-025.551 R004.600
N198 G1 X011.900 Z-036.748
N199 G3 X012.100 Z-037.135 R000.800
N200 G1 X012.100 Z-039.202
N201 G1 X012.110 Z-039.293
N202 G1 X012.060 Z-039.382
N203 G1 X012.300 Z-039.450
N204 G1 X012.582 Z-039.308
N205 G0 X013.900 Z-039.308
N206 G0 X013.900 Z-025.551
N207 G0 X012.300 Z-025.551
N208 G1 X011.900 Z-025.551
N209 G2 X011.500 Z-025.785 R004.600
N210 G1 X011.500 Z-036.510
N211 G1 X011.536 Z-036.526
N212 G3 X011.900 Z-036.748 R000.800
N213 G1 X012.182 Z-036.606
N214 G0 X013.500 Z-036.606
N215 G0 X013.500 Z-025.785
N216 G0 X011.900 Z-025.785
N217 G1 X011.500 Z-025.785
N218 G2 X011.100 Z-026.056 R004.600
N219 G1 X011.100 Z-036.340
N220 G1 X011.500 Z-036.510
N221 G1 X011.782 Z-036.368
N222 G0 X013.100 Z-036.368
N223 G0 X013.100 Z-026.056
N224 G0 X011.500 Z-026.056
N225 G1 X011.100 Z-026.056
N226 G2 X010.700 Z-026.376 R004.600
N227 G1 X010.700 Z-036.169
N228 G1 X011.100 Z-036.340
N229 G1 X011.382 Z-036.198
N230 G0 X012.700 Z-036.198
N231 G0 X012.700 Z-026.376
N232 G0 X011.100 Z-026.376
N233 G1 X010.700 Z-026.376
N234 G2 X010.300 Z-026.770 R004.600
N235 G1 X010.300 Z-035.999
N236 G1 X010.700 Z-036.169
N237 G1 X010.982 Z-036.028
N238 G0 X012.300 Z-036.028
N239 G0 X012.300 Z-026.770
N240 G0 X010.700 Z-026.770
N241 G1 X010.300 Z-026.770
N242 G2 X010.090 Z-027.023 R004.600
N243 G1 X009.900 Z-027.275
N244 G1 X009.900 Z-035.829
N245 G1 X010.300 Z-035.999
N246 G1 X010.582 Z-035.858
N247 G0 X011.900 Z-035.858
N248 G0 X011.900 Z-027.275
N249 G0 X010.300 Z-027.275
N250 G1 X009.900 Z-027.275
N251 G1 X009.500 Z-027.802
N252 G1 X009.500 Z-035.658
N253 G1 X009.582 Z-035.694
N254 G1 X009.900 Z-035.829
N255 G1 X010.182 Z-035.688
N256 G0 X011.500 Z-035.688
N257 G0 X011.500 Z-027.802
N258 G0 X009.900 Z-027.802
N259 G1 X009.500 Z-027.802
N260 G1 X009.100 Z-028.330
N261 G1 X009.100 Z-035.465
N262 G2 X009.500 Z-035.658 R003.100
N263 G1 X009.782 Z-035.517
N264 G0 X011.100 Z-035.517
N265 G0 X011.100 Z-028.330
N266 G0 X009.500 Z-028.330
N267 G1 X009.100 Z-028.330
N268 G1 X008.700 Z-028.858
N269 G1 X008.700 Z-035.232
N270 G2 X009.100 Z-035.465 R003.100
N271 G1 X009.382 Z-035.324
N272 G0 X010.700 Z-035.324
N273 G0 X010.700 Z-028.858
N274 G0 X009.100 Z-028.858
N275 G1 X008.700 Z-028.858
N276 G1 X008.300 Z-029.386
N277 G1 X008.300 Z-034.941
N278 G2 X008.700 Z-035.232 R003.100
N279 G1 X008.982 Z-035.091
N280 G0 X010.300 Z-035.091
N281 G0 X010.300 Z-029.386
N282 G0 X008.700 Z-029.386
N283 G1 X008.300 Z-029.386
N284 G1 X007.900 Z-029.914
N285 G1 X007.900 Z-034.552
N286 G2 X008.300 Z-034.941 R003.100
N287 G1 X008.582 Z-034.800
N288 G0 X009.900 Z-034.800
N289 G0 X009.900 Z-029.914
N290 G0 X008.300 Z-029.914
N291 G1 X007.900 Z-029.914
N292 G1 X007.500 Z-030.441
N293 G1 X007.500 Z-033.887
N294 G2 X007.900 Z-034.552 R003.100
N295 G1 X008.182 Z-034.411
N296 G0 X009.500 Z-034.411
N297 G0 X009.500 Z-030.441
N298 G0 X007.900 Z-030.441
N299 G1 X007.500 Z-030.441
N300 G1 X007.412 Z-030.556
N301 G1 X007.400 Z-030.592
N302 G1 X007.400 Z-033.333
N303 G2 X007.500 Z-033.887 R003.100
N304 G1 X007.782 Z-033.746
N305 G0 X022.518 Z-033.746
N306 G0 X022.518 Z-023.391
 
(OPER NAME: FINISH_TURN_OD_2)
N307 M3
N308 G0 X020.746 Z-019.753
N309 G0 X015.246 Z-019.753
N310 G2 X015.144 Z-019.950 R000.400 F.06
N311 G2 X015.550 Z-020.298 R000.400
N312 G1 X015.738 Z-020.352
N313 G3 X016.144 Z-020.700 R000.400
N314 G1 X016.138 Z-020.751
N315 G1 X015.444 Z-023.428
N316 G3 X014.994 Z-023.857 R000.700
N317 G1 X012.264 Z-025.088
N318 G2 X009.716 Z-026.952 R004.800
N319 G1 X007.038 Z-030.485
N320 G1 X006.990 Z-030.539
N321 G1 X007.000 Z-030.592
N322 G1 X007.000 Z-033.333
N323 G2 X009.322 Z-035.846 R003.300
N324 G1 X011.278 Z-036.678
N325 G3 X011.700 Z-037.135 R000.600
N326 G1 X011.700 Z-039.202
N327 G1 X011.690 Z-039.277
N328 G1 X012.060 Z-039.382
N329 G2 X012.454 Z-039.433 R000.400
N330 G2 X013.150 Z-039.230 R000.400
N331 G0 X045.378 Z-039.230
     M5
N332 G0 X045.378 Z042.583
 
(OPER NAME: GROOVE_OD)
N333 T0404  (Parting Tool 2mm wide)
N334 G0 X021.968 Z-040.468
     G96 S17 M3
     G48 S1800
N335 G94
N336 G1 X021.568 Z-040.468 F25
N337 G1 X012.326 Z-040.468
N338 G4 P1000
N339 G1 X012.726 Z-040.468
N340 G0 X022.508 Z-040.468
N341 G0 X022.508 Z-041.266
N342 G1 X022.108 Z-041.266
N343 G1 X012.272 Z-041.266
N344 G4 P1000
N345 G1 X012.672 Z-041.266
N346 G0 X022.520 Z-041.266
N347 G0 X022.520 Z-042.064
N348 G1 X022.120 Z-042.064
N349 G1 X011.130 Z-042.064
N350 G4 P1000
N351 G1 X011.530 Z-042.064
N352 G0 X022.526 Z-042.064
N353 G0 X022.526 Z-042.862
N354 G1 X022.126 Z-042.862
N355 G1 X009.762 Z-042.862
N356 G4 P1000
N357 G1 X010.162 Z-042.862
N358 G0 X022.526 Z-042.862
N359 G0 X022.526 Z-043.660
N360 G1 X022.126 Z-043.660
N361 G1 X008.394 Z-043.660
N362 G4 P1000
N363 G1 X008.794 Z-043.660
N364 G0 X022.526 Z-043.660
N365 G0 X022.526 Z-044.459
N366 G1 X022.126 Z-044.459
N367 G1 X007.026 Z-044.459
N368 G4 P1000
N369 G1 X007.426 Z-044.459
N370 G0 X023.612 Z-044.459
N371 G0 X023.612 Z-039.563
 
(OPER NAME: FINISH_BACK_SIDE)
N372 G96 S17 M3
N373 G48 S1800
N374 G0 X023.612 Z-039.880
N375 G0 X014.746 Z-039.880
N376 G0 X014.746 Z-041.052
N377 G0 X011.826 Z-041.052
N378 G3 X011.538 Z-041.443 R000.600
N379 G1 X006.330 Z-044.480
N380 G0 X015.776 Z-044.480
N381 G0 X015.776 Z-040.425
 
(OPER NAME: PART_OFF)

N384 G0 X015.776 Z-039.880
N385 G0 X014.746 Z-039.880
N386 G0 X011.926 Z-040.552
N387 G2 X011.526 Z-040.752 R000.200
N388 G1 X011.526 Z-041.052
N389 G3 X011.310 Z-041.345 R000.450
N390 G1 X006.102 Z-044.383
N391 G1 X006.086 Z-044.400
N392 G1 X006.026 Z-044.400
N393 G1 X000.126 Z-044.400
N394 G0 X020.498 Z-044.400
     M5
N395 G0 X020.498 Z026.569
 
(OPER NAME: PREPARE_FOR_NEXT_PART)
N396 T0101
N397 G0 X008.000 Z000.400
N398 M9
N399 M5
N400 M30
%
